www/assets/icons/grid_3x3.svg

<svg xmlns="http://www.w3.org/2000/svg" width="24" height="24" viewBox="0 0 24 24" fill='currentColor'><path d="M20 10V8h-4V4h-2v4h-4V4H8v4H4v2h4v4H4v2h4v4h2v-4h4v4h2v-4h4v-2h-4v-4zm-6 4h-4v-4h4z"/></svg>

<svg width="24" height="24" viewBox="0 0 24 24" xmlns="http://www.w3.org/2000/svg" fill='currentColor'><path d="M20 10V8H16V4H14V8H10V4H8V8H4V10H8V14H4V16H8V20H10V16H14V20H16V16H20V14H16V10H20ZM14 14H10V10H14V14Z"/></svg>
